X:2159
T:The good old way 
C:J Cubbon 
C:Traditional
O:Isle of Man
Z:Clague collection
B:Kiaull Vannin #159 
M:2/4 
L:1/4
Q:60 
K:G 
A|E A|A/B/ c|B/A/ G/A/|B/c/ d|e>d|e/f/ g|B>A|A:| 
c/d/|e/e/ e|e g|e/d/ d/d/|d c/B/|c/c/ c|c e|B/B/ B/B/|B A/B/| 
c/A/ A|A B/c/|d/B/ B|B c/d/|(e>d)|e/f/ g|B>A|A|| 

